tools/download-figma-icons/icons/outlined-large/facebook.svg

<svg width="64" height="64" viewBox="0 0 64 64" fill="none" xmlns="http://www.w3.org/2000/svg"><path fill-rule="evenodd" clip-rule="evenodd" d="M27.192 55h7.061l-.002-21.327h8.246l.003-7.055h-8.249v-6.212c0-2.288.556-4.915 4.898-4.915l3.64-.002V9.008L37.13 9c-6.13 0-9.94 4.046-9.94 10.558v7.06H20v7.055h7.192V55Zm7.588 3h-8.115c-1.364 0-2.473-1.121-2.473-2.499V36.673h-4.72c-1.363 0-2.472-1.121-2.472-2.499v-8.056c0-1.379 1.109-2.5 2.472-2.5h4.718v-4.06C24.19 11.448 29.391 6 37.131 6l6.189.009a2.494 2.494 0 0 1 2.469 2.499v7.482c0 1.378-1.11 2.499-2.473 2.499l-4.166.002c-1.847 0-1.899.273-1.899 1.915v3.212h5.776c.658 0 1.3.273 1.762.746.459.471.711 1.094.711 1.754l-.003 8.057c0 1.377-1.11 2.498-2.473 2.498h-5.773l.002 18.828c0 1.378-1.11 2.499-2.473 2.499Z" fill="currentColor"/></svg>

<svg width="64" height="64" viewBox="0 0 64 64" fill="none" xmlns="http://www.w3.org/2000/svg">
<path fill-rule="evenodd" clip-rule="evenodd" d="M27.192 55H34.253L34.251 33.673H42.497L42.5 26.618H34.251V20.406C34.251 18.118 34.807 15.491 39.149 15.491L42.789 15.489V9.008L37.13 9C31 9 27.19 13.046 27.19 19.558V26.618H20V33.673H27.192V55ZM34.78 58H26.665C25.301 58 24.192 56.879 24.192 55.501V36.673H19.472C18.109 36.673 17 35.552 17 34.174V26.118C17 24.739 18.109 23.618 19.472 23.618H24.19V19.558C24.19 11.448 29.391 6 37.131 6L43.32 6.009C44.686 6.018 45.789 7.137 45.789 8.508V15.99C45.789 17.368 44.679 18.489 43.316 18.489L39.15 18.491C37.303 18.491 37.251 18.764 37.251 20.406V23.618H43.027C43.685 23.618 44.327 23.891 44.789 24.364C45.248 24.835 45.5 25.458 45.5 26.118L45.497 34.175C45.497 35.552 44.387 36.673 43.024 36.673H37.251L37.253 55.501C37.253 56.879 36.143 58 34.78 58Z" fill="black"/>
</svg>
